;FLAVOR:Marlin
;TIME:20160
;Filament used: 14.3422m
;Layer height: 0.2
;MINX:66.455
;MINY:40.281
;MINZ:0.2
;MAXX:192.288
;MAXY:159.719
;MAXZ:33
;Generated with Cura_SteamEngine 4.3.0
M140 S60
M105
M190 S60
M104 S210
M105
M109 S210
M82 ;absolute extrusion mode
; -- START GCODE -- 
M4002 P1 ;set heat program 1 
M1203 A88 D66 F1200 ;set higher accel and decel 
G28 X0 Y0 ;home XY 
G28 Z0 ;home Z
G91 ;set relative movements 
G0 F100 ;speed 100mm/sec 
G0 E20 ;extrude 20mm of filament
G90 ;absolute movements 
; -- end of START GCODE --
G92 E0
G92 E0
G1 F1800 E-0.6
;LAYER_COUNT:165
;LAYER:0
M107
G0 F3600 X67.938 Y44.14 Z0.2
;TYPE:SKIRT
G1 F1800 E0
G1 F1200 X68.184 Y43.8 E0.01396
G1 X68.331 Y43.608 E0.022
G1 X68.842 Y43.006 E0.04826
G1 X69.411 Y42.459 E0.07452
G1 X69.787 Y42.153 E0.09064
G1 X69.978 Y42.007 E0.09864
G1 X70.629 Y41.56 E0.1249
G1 X71.322 Y41.181 E0.15117
G1 X71.722 Y41.001 E0.16576
G1 X71.941 Y40.91 E0.17365
G1 X72.685 Y40.644 E0.19993
G1 X73.451 Y40.455 E0.22617
G1 X73.911 Y40.38 E0.24167
G1 X74.153 Y40.348 E0.24979
G1 X75.176 Y40.281 E0.28389
G1 X124.173 Y40.282 E1.91354
G1 X125.137 Y40.342 E1.94566
G1 X125.378 Y40.372 E1.95374
G1 X126.155 Y40.509 E1.97998
G1 X126.915 Y40.724 E2.00625
G1 X127.435 Y40.921 E2.02474
G1 X127.654 Y41.013 E2.03264
G1 X128.366 Y41.355 E2.05892
G1 X129.039 Y41.768 E2.08518
G1 X129.37 Y42.007 E2.09876
G1 X129.372 Y42.008 E2.09883
G1 X129.373 Y42.007 E2.09888
G1 X130.024 Y41.56 E2.12514
G1 X130.717 Y41.181 E2.15142
G1 X131.105 Y41.006 E2.16557
G1 X131.323 Y40.915 E2.17343
G1 X132.067 Y40.648 E2.19972
G1 X132.833 Y40.458 E2.22597
G1 X133.31 Y40.38 E2.24205
G1 X133.553 Y40.348 E2.2502
G1 X134.576 Y40.281 E2.2843
G1 X183.814 Y40.312 E3.92196
G1 X184.603 Y40.352 E3.94823
G1 X185.383 Y40.472 E3.97448
G1 X186.147 Y40.671 E4.00074
G1 X186.83 Y40.921 E4.02493
G1 X187.049 Y41.013 E4.03283
G1 X187.761 Y41.355 E4.0591
G1 X188.434 Y41.768 E4.08537
G1 X188.765 Y42.007 E4.09895
G1 X188.956 Y42.153 E4.10694
G1 X189.558 Y42.664 E4.1332
G1 X190.106 Y43.233 E4.15948
G1 X190.412 Y43.608 E4.17558
G1 X190.559 Y43.8 E4.18362
G1 X191.007 Y44.451 E4.2099
G1 X191.387 Y45.143 E4.23616
G1 X191.571 Y45.554 E4.25114
G1 X191.661 Y45.771 E4.25895
G1 X191.926 Y46.515 E4.28522
G1 X192.115 Y47.281 E4.31146
G1 X192.188 Y47.728 E4.32653
G1 X192.22 Y47.968 E4.33458
G1 X192.288 Y48.999 E4.36895
G1 X192.288 Y104.508 E6.21518
G1 X192.287 Y150.999 E7.76148
G1 X192.227 Y151.963 E7.7936
G1 X192.197 Y152.204 E7.80168
G1 X192.06 Y152.981 E7.82792
G1 X191.845 Y153.741 E7.85419
G1 X191.655 Y154.245 E7.87211
G1 X191.564 Y154.463 E7.87997
G1 X191.223 Y155.175 E7.90622
G1 X190.812 Y155.849 E7.93248
G1 X190.559 Y156.2 E7.94687
G1 X190.412 Y156.392 E7.95491
G1 X189.901 Y156.994 E7.98118
G1 X189.332 Y157.541 E8.00743
G1 X188.956 Y157.847 E8.02355
G1 X188.765 Y157.993 E8.03155
G1 X188.114 Y158.44 E8.05781
G1 X187.421 Y158.819 E8.08408
G1 X187.033 Y158.994 E8.09824
G1 X186.815 Y159.085 E8.1061
G1 X186.071 Y159.352 E8.13239
G1 X185.305 Y159.542 E8.15864
G1 X184.828 Y159.62 E8.17471
G1 X184.585 Y159.652 E8.18287
G1 X183.567 Y159.719 E8.2168
G1 X134.57 Y159.718 E9.84644
G1 X133.606 Y159.658 E9.87857
G1 X133.365 Y159.628 E9.88665
G1 X132.588 Y159.491 E9.91289
G1 X131.828 Y159.276 E9.93916
G1 X131.308 Y159.079 E9.95765
G1 X131.089 Y158.987 E9.96555
G1 X130.377 Y158.645 E9.99183
G1 X129.704 Y158.232 E10.01809
G1 X129.373 Y157.993 E10.03167
G1 X129.372 Y157.992 E10.03171
G1 X129.37 Y157.993 E10.03179
G1 X128.719 Y158.44 E10.05805
G1 X128.026 Y158.819 E10.08432
G1 X127.638 Y158.994 E10.09848
G1 X127.42 Y159.085 E10.10634
G1 X126.676 Y159.352 E10.13263
G1 X125.91 Y159.542 E10.15888
G1 X125.433 Y159.62 E10.17495
G1 X125.19 Y159.652 E10.18311
G1 X124.172 Y159.719 E10.21704
G1 X75.175 Y159.718 E11.84669
G1 X74.208 Y159.658 E11.87891
G1 X73.968 Y159.628 E11.88695
G1 X73.19 Y159.49 E11.91323
G1 X72.43 Y159.275 E11.9395
G1 X71.926 Y159.084 E11.95743
G1 X71.706 Y158.992 E11.96536
G1 X70.994 Y158.651 E11.99162
G1 X70.319 Y158.24 E12.0179
G1 X69.978 Y157.993 E12.03191
G1 X69.787 Y157.847 E12.0399
G1 X69.185 Y157.336 E12.06617
G1 X68.637 Y156.767 E12.09244
G1 X68.331 Y156.392 E12.10854
G1 X68.184 Y156.2 E12.11658
G1 X67.736 Y155.549 E12.14287
G1 X67.356 Y154.857 E12.16913
G1 X67.172 Y154.446 E12.1841
G1 X67.082 Y154.229 E12.19192
G1 X66.817 Y153.485 E12.21818
G1 X66.628 Y152.719 E12.24443
G1 X66.555 Y152.272 E12.25949
G1 X66.523 Y152.032 E12.26754
G1 X66.455 Y151.001 E12.30191
G1 X66.455 Y95.492 E14.14815
G1 X66.456 Y49.001 E15.69444
G1 X66.515 Y48.041 E15.72643
G1 X66.545 Y47.799 E15.73454
G1 X66.682 Y47.022 E15.76079
G1 X66.897 Y46.262 E15.78705
G1 X67.093 Y45.743 E15.80551
G1 X67.184 Y45.526 E15.81333
G1 X67.526 Y44.814 E15.8396
G1 X67.938 Y44.14 E15.86588
G0 F3600 X68.501 Y44.043
G1 F1200 X68.648 Y43.851 E15.87392
G1 X69.147 Y43.266 E15.8995
G1 X69.704 Y42.735 E15.92509
G1 X70.03 Y42.471 E15.93904
G1 X70.221 Y42.325 E15.94704
G1 X70.856 Y41.89 E15.97264
G1 X71.875 Y41.37 E16.01069
G1 X72.094 Y41.279 E16.01858
G1 X72.819 Y41.022 E16.04416
G1 X73.567 Y40.84 E16.06977
G1 X73.964 Y40.777 E16.08314
G1 X74.206 Y40.745 E16.09125
G1 X75.176 Y40.681 E16.12359
G1 X124.173 Y40.682 E17.75323
G1 X125.087 Y40.739 E17.78369
G1 X125.328 Y40.769 E17.79177
G1 X126.085 Y40.903 E17.81734
G1 X126.825 Y41.116 E17.84295
G1 X127.28 Y41.29 E17.85915
G1 X127.499 Y41.382 E17.86705
G1 X128.192 Y41.716 E17.89264
G1 X129.127 Y42.325 E17.92975
G1 X129.318 Y42.471 E17.93775
G1 X129.37 Y42.515 E17.94002
G1 X129.425 Y42.471 E17.94236
G1 X129.616 Y42.325 E17.95035
G1 X130.251 Y41.89 E17.97595
G1 X131.259 Y41.375 E18.0136
G1 X131.477 Y41.284 E18.02146
G1 X132.202 Y41.025 E18.04707
G1 X132.949 Y40.843 E18.07264
G1 X133.362 Y40.776 E18.08655
G1 X133.605 Y40.744 E18.09471
G1 X134.576 Y40.681 E18.12707
G1 X183.814 Y40.712 E19.76473
G1 X184.582 Y40.752 E19.79031
G1 X185.341 Y40.872 E19.81587
G1 X186.085 Y41.071 E19.84148
G1 X186.675 Y41.29 E19.86242
G1 X186.894 Y41.382 E19.87032
G1 X187.587 Y41.716 E19.8959
G1 X188.522 Y42.325 E19.93302
G1 X188.713 Y42.471 E19.94101
G1 X189.299 Y42.969 E19.96659
G1 X189.83 Y43.525 E19.99216
G1 X190.095 Y43.851 E20.00614
G1 X190.242 Y44.043 E20.01418
G1 X190.677 Y44.678 E20.03978
G1 X191.044 Y45.354 E20.06536
G1 X191.201 Y45.707 E20.07821
G1 X191.291 Y45.924 E20.08603
G1 X191.549 Y46.649 E20.11162
G1 X191.729 Y47.396 E20.13718
G1 X191.791 Y47.781 E20.15015
G1 X191.823 Y48.021 E20.1582
G1 X191.888 Y48.999 E20.1908
G1 X191.888 Y104.508 E22.03704
G1 X191.887 Y150.999 E23.58333
G1 X191.83 Y151.913 E23.61379
G1 X191.8 Y152.154 E23.62187
G1 X191.666 Y152.911 E23.64744
G1 X191.453 Y153.651 E23.67305
G1 X191.286 Y154.091 E23.6887
G1 X191.195 Y154.309 E23.69656
G1 X190.862 Y155.002 E23.72213
G1 X190.242 Y155.957 E23.76
G1 X190.095 Y156.149 E23.76805
G1 X189.596 Y156.734 E23.79362
G1 X189.039 Y157.265 E23.81922
G1 X188.713 Y157.529 E23.83317
G1 X188.522 Y157.675 E23.84116
G1 X187.887 Y158.11 E23.86677
G1 X186.879 Y158.625 E23.90441
G1 X186.661 Y158.716 E23.91227
G1 X185.936 Y158.975 E23.93788
G1 X185.189 Y159.157 E23.96345
G1 X184.776 Y159.224 E23.97736
G1 X184.533 Y159.256 E23.98552
G1 X183.567 Y159.319 E24.01771
G1 X134.57 Y159.318 E25.64736
G1 X133.656 Y159.261 E25.67782
G1 X133.415 Y159.231 E25.6859
G1 X132.658 Y159.097 E25.71147
G1 X131.918 Y158.884 E25.73708
G1 X131.463 Y158.71 E25.75328
G1 X131.244 Y158.618 E25.76118
G1 X130.551 Y158.284 E25.78677
G1 X129.616 Y157.675 E25.82388
G1 X129.425 Y157.529 E25.83188
G1 X129.373 Y157.485 E25.83414
G1 X129.318 Y157.529 E25.83649
G1 X129.127 Y157.675 E25.84448
G1 X128.492 Y158.11 E25.87008
G1 X127.484 Y158.625 E25.90773
G1 X127.266 Y158.716 E25.91559
G1 X126.541 Y158.975 E25.94119
G1 X125.794 Y159.157 E25.96677
G1 X125.381 Y159.224 E25.98068
G1 X125.138 Y159.256 E25.98883
G1 X124.172 Y159.319 E26.02103
G1 X75.175 Y159.318 E27.65068
G1 X74.257 Y159.261 E27.68127
G1 X74.017 Y159.231 E27.68931
G1 X73.26 Y159.096 E27.71489
G1 X72.521 Y158.883 E27.74047
G1 X72.08 Y158.715 E27.75617
G1 X71.86 Y158.623 E27.7641
G1 X71.167 Y158.29 E27.78967
G1 X70.221 Y157.675 E27.8272
G1 X70.03 Y157.529 E27.83519
G1 X69.444 Y157.031 E27.86077
G1 X68.913 Y156.475 E27.88634
G1 X68.648 Y156.149 E27.90032
G1 X68.501 Y155.957 E27.90836
G1 X68.066 Y155.322 E27.93396
G1 X67.699 Y154.646 E27.95954
G1 X67.542 Y154.293 E27.97239
G1 X67.452 Y154.076 E27.98021
G1 X67.194 Y153.351 E28.0058
G1 X67.014 Y152.604 E28.03136
G1 X66.952 Y152.219 E28.04433
G1 X66.92 Y151.979 E28.05238
G1 X66.855 Y151.001 E28.08498
G1 X66.855 Y95.492 E29.93122
G1 X66.856 Y49.001 E31.47751
G1 X66.912 Y48.091 E31.50784
G1 X66.942 Y47.849 E31.51595
G1 X67.076 Y47.091 E31.54155
G1 X67.288 Y46.352 E31.56712
G1 X67.462 Y45.897 E31.58332
G1 X67.553 Y45.68 E31.59115
G1 X67.887 Y44.987 E31.61674
G1 X68.501 Y44.043 E31.65419
G0 F3600 X68.819 Y44.287
G1 F1200 X68.966 Y44.095 E31.66223
G1 X69.452 Y43.526 E31.68712
G1 X70.273 Y42.789 E31.72382
G1 X70.464 Y42.643 E31.73181
G1 X71.082 Y42.221 E31.7567
G1 X72.029 Y41.74 E31.79203
G1 X72.248 Y41.649 E31.79992
G1 X72.953 Y41.399 E31.8248
G1 X74.016 Y41.173 E31.86094
G1 X74.258 Y41.141 E31.86906
G1 X75.176 Y41.081 E31.89966
G1 X124.173 Y41.082 E33.52931
G1 X125.038 Y41.136 E33.55813
G1 X125.279 Y41.166 E33.56621
G1 X126.015 Y41.298 E33.59108
G1 X126.733 Y41.507 E33.61595
G1 X127.125 Y41.658 E33.62993
G1 X127.344 Y41.75 E33.63783
G1 X128.017 Y42.077 E33.66271
G1 X128.884 Y42.643 E33.69715
G1 X129.075 Y42.789 E33.70515
G1 X129.379 Y43.048 E33.71843
G1 X129.668 Y42.789 E33.73134
G1 X129.859 Y42.643 E33.73933
G1 X130.477 Y42.221 E33.76422
G1 X131.413 Y41.744 E33.79916
G1 X131.631 Y41.653 E33.80702
G1 X132.336 Y41.402 E33.83191
G1 X133.414 Y41.173 E33.86857
G1 X133.657 Y41.141 E33.87672
G1 X134.575 Y41.081 E33.90732
G1 X183.813 Y41.112 E35.54498
G1 X184.56 Y41.152 E35.56986
G1 X185.299 Y41.272 E35.59476
G1 X186.02 Y41.47 E35.61963
G1 X186.52 Y41.658 E35.6374
G1 X186.739 Y41.75 E35.6453
G1 X187.412 Y42.077 E35.67018
G1 X188.279 Y42.643 E35.70462
G1 X188.47 Y42.789 E35.71262
G1 X189.039 Y43.274 E35.73748
G1 X189.777 Y44.095 E35.7742
G1 X189.924 Y44.287 E35.78224
G1 X190.346 Y44.904 E35.8071
G1 X190.832 Y45.86 E35.84277
G1 X190.922 Y46.077 E35.85059
G1 X191.171 Y46.783 E35.87549
G1 X191.395 Y47.834 E35.91123
G1 X191.427 Y48.074 E35.91928
G1 X191.488 Y48.999 E35.95011
G1 X191.488 Y104.508 E37.79635
G1 X191.487 Y150.999 E39.34265
G1 X191.433 Y151.864 E39.37147
G1 X191.403 Y152.105 E39.37955
G1 X191.271 Y152.841 E39.40442
G1 X191.062 Y153.559 E39.42929
G1 X190.917 Y153.937 E39.44276
G1 X190.826 Y154.155 E39.45062
G1 X190.501 Y154.828 E39.47547
G1 X189.924 Y155.713 E39.51061
G1 X189.777 Y155.905 E39.51866
G1 X189.291 Y156.474 E39.54354
G1 X188.47 Y157.211 E39.58024
G1 X188.279 Y157.357 E39.58824
G1 X187.661 Y157.779 E39.61312
G1 X186.725 Y158.256 E39.64807
G1 X186.507 Y158.347 E39.65592
G1 X185.802 Y158.598 E39.68081
G1 X184.724 Y158.827 E39.71747
G1 X184.481 Y158.859 E39.72562
G1 X183.567 Y158.919 E39.75608
G1 X134.57 Y158.918 E41.38573
G1 X133.705 Y158.864 E41.41456
G1 X133.464 Y158.834 E41.42264
G1 X132.728 Y158.702 E41.44751
G1 X132.01 Y158.493 E41.47238
G1 X131.618 Y158.342 E41.48635
G1 X131.399 Y158.25 E41.49425
G1 X130.726 Y157.923 E41.51914
G1 X129.859 Y157.357 E41.55357
G1 X129.668 Y157.211 E41.56157
G1 X129.364 Y156.952 E41.57485
G1 X129.075 Y157.211 E41.58776
G1 X128.884 Y157.357 E41.59576
G1 X128.266 Y157.779 E41.62065
G1 X127.33 Y158.256 E41.65559
G1 X127.112 Y158.347 E41.66344
G1 X126.407 Y158.598 E41.68833
G1 X125.329 Y158.827 E41.72499
G1 X125.086 Y158.859 E41.73314
G1 X124.172 Y158.919 E41.76361
G1 X75.175 Y158.918 E43.39325
G1 X74.307 Y158.864 E43.42218
G1 X74.067 Y158.834 E43.43022
G1 X73.33 Y158.702 E43.45513
G1 X72.613 Y158.491 E43.47998
G1 X72.234 Y158.346 E43.49348
G1 X72.014 Y158.254 E43.50141
G1 X71.341 Y157.929 E43.52627
G1 X70.464 Y157.357 E43.56109
G1 X70.273 Y157.211 E43.56909
G1 X69.704 Y156.726 E43.59396
G1 X68.966 Y155.905 E43.63067
G1 X68.819 Y155.713 E43.63872
G1 X68.397 Y155.096 E43.66358
G1 X67.911 Y154.14 E43.69925
G1 X67.821 Y153.923 E43.70706
G1 X67.572 Y153.217 E43.73196
G1 X67.348 Y152.166 E43.7677
G1 X67.316 Y151.926 E43.77576
G1 X67.255 Y151.001 E43.80659
G1 X67.255 Y95.492 E45.65283
G1 X67.256 Y49.001 E47.19912
G1 X67.309 Y48.14 E47.22781
G1 X67.339 Y47.898 E47.23593
G1 X67.471 Y47.161 E47.26083
G1 X67.68 Y46.443 E47.2857
G1 X67.831 Y46.052 E47.29964
G1 X67.922 Y45.835 E47.30747
G1 X68.247 Y45.161 E47.33235
G1 X68.819 Y44.287 E47.3671
G0 F3600 X69.137 Y44.53
G1 F1200 X69.284 Y44.338 E47.37514
G1 X69.756 Y43.786 E47.39929
G1 X70.516 Y43.106 E47.43321
G1 X70.707 Y42.96 E47.44121
G1 X71.307 Y42.552 E47.46534
G1 X72.182 Y42.109 E47.49796
G1 X72.401 Y42.018 E47.50585
G1 X73.087 Y41.777 E47.53003
G1 X74.069 Y41.57 E47.56341
G1 X74.311 Y41.538 E47.57153
G1 X75.176 Y41.481 E47.60036
G1 X124.173 Y41.482 E49.23001
G1 X124.988 Y41.533 E49.25717
G1 X125.229 Y41.563 E49.26525
G1 X125.944 Y41.692 E49.28941
G1 X126.97 Y42.027 E49.32531
G1 X127.189 Y42.119 E49.33321
G1 X127.842 Y42.437 E49.35737
G1 X128.641 Y42.96 E49.38913
G1 X128.832 Y43.106 E49.39713
G1 X129.383 Y43.578 E49.42126
G1 X129.911 Y43.106 E49.44481
G1 X130.102 Y42.96 E49.45281
G1 X130.702 Y42.552 E49.47694
G1 X131.568 Y42.113 E49.50924
G1 X131.786 Y42.022 E49.51709
G1 X132.47 Y41.78 E49.54122
G1 X133.466 Y41.569 E49.57509
G1 X133.709 Y41.537 E49.58324
G1 X134.575 Y41.481 E49.6121
G1 X183.813 Y41.512 E51.24976
G1 X184.538 Y41.552 E51.27392
G1 X185.255 Y41.672 E51.29809
G1 X185.954 Y41.87 E51.32226
G1 X186.365 Y42.027 E51.33689
G1 X186.584 Y42.119 E51.34479
G1 X187.237 Y42.437 E51.36895
G1 X188.036 Y42.96 E51.40071
G1 X188.227 Y43.106 E51.40871
G1 X188.779 Y43.579 E51.43288
G1 X189.459 Y44.338 E51.46678
G1 X189.606 Y44.53 E51.47482
G1 X190.016 Y45.13 E51.49899
G1 X190.462 Y46.014 E51.53192
G1 X190.552 Y46.231 E51.53974
G1 X190.793 Y46.916 E51.56389
G1 X190.998 Y47.887 E51.5969
G1 X191.03 Y48.127 E51.60495
G1 X191.088 Y48.999 E51.63402
G1 X191.088 Y104.508 E53.48025
G1 X191.087 Y150.999 E55.02655
G1 X191.036 Y151.814 E55.05371
G1 X191.006 Y152.055 E55.06179
G1 X190.877 Y152.77 E55.08595
G1 X190.548 Y153.782 E55.12135
G1 X190.457 Y154 E55.1292
G1 X190.14 Y154.654 E55.15338
G1 X189.606 Y155.47 E55.18581
G1 X189.459 Y155.662 E55.19385
G1 X188.987 Y156.214 E55.21801
G1 X188.227 Y156.894 E55.25193
G1 X188.036 Y157.04 E55.25993
G1 X187.436 Y157.448 E55.28406
G1 X186.57 Y157.887 E55.31635
G1 X186.352 Y157.978 E55.32421
G1 X185.668 Y158.22 E55.34834
G1 X184.672 Y158.431 E55.3822
G1 X184.429 Y158.463 E55.39035
G1 X183.567 Y158.519 E55.41909
G1 X134.57 Y158.518 E57.04873
G1 X133.755 Y158.467 E57.07589
G1 X133.514 Y158.437 E57.08397
G1 X132.799 Y158.308 E57.10813
G1 X131.773 Y157.973 E57.14403
G1 X131.554 Y157.881 E57.15193
G1 X130.901 Y157.563 E57.17609
G1 X130.102 Y157.04 E57.20785
G1 X129.911 Y156.894 E57.21585
G1 X129.36 Y156.422 E57.23998
G1 X128.832 Y156.894 E57.26353
G1 X128.641 Y157.04 E57.27153
G1 X128.041 Y157.448 E57.29566
G1 X127.175 Y157.887 E57.32796
G1 X126.957 Y157.978 E57.33581
G1 X126.273 Y158.22 E57.35995
G1 X125.277 Y158.431 E57.39381
G1 X125.034 Y158.463 E57.40196
G1 X124.172 Y158.519 E57.43069
G1 X75.175 Y158.518 E59.06034
G1 X74.356 Y158.467 E59.08763
G1 X74.116 Y158.437 E59.09567
G1 X73.402 Y158.307 E59.11981
G1 X72.389 Y157.977 E59.15525
G1 X72.169 Y157.885 E59.16318
G1 X71.515 Y157.568 E59.18735
G1 X70.707 Y157.04 E59.21945
G1 X70.516 Y156.894 E59.22745
G1 X69.964 Y156.421 E59.25163
G1 X69.284 Y155.662 E59.28552
G1 X69.137 Y155.47 E59.29357
G1 X68.727 Y154.87 E59.31774
G1 X68.281 Y153.986 E59.35067
